!! 00000] TT[WS
!!!OTL: Xiaonigu sifan
!!!ARE: Asia, China, Shanxi Hequ
!! Ethnic Group: Han
!! WII, 181
!!!SCT: J0676
!!!YEM: Copyright 1995, estate of Helmut Schaffrath.
**kern
*ICvox
*Ivox
*M2/4
*k[b-e-a-]
*E-:
{8g
8ee-
8dd
8cc
=1
4.b-
16g
16b-
=2
8.ee-
16gg
16ff
16gg
8ee-
=3
2b-}
=4
{4ee-
8ee-
8cc
=5
8b-
8cc
8a-
8g
=6
2f}
=7
{4ee-
8ee-
8cc
=8
8.b-
16ee-
8cc
8b-
=9
8e-
8f
8g
8cc
=10
8b-
8g
16f
16g
8e-}
=11
{8c
8e-
4B-
=12
8.g
16f
8g
8c
=13
2B-}
=14
{4c
4d
=15
8c
8d
8c
8B-
=16
4c
4d
=17
8c
8d
8c
8B-}
=18
{8f
8d
8f
8b-
=19
8.g
16f
8d
8f
=20
2c}
=21
{4ee-
8ee-
8cc
=22
8.b-
16ee-
8cc
8b-
=23
8.e-
16f
8g
8cc
=24
8b-
8g
8f
16g
16b-}
=25
{4c
4e-
=26
8e-
8f
8g
8cc
=27
8b-
8g
8f
8g
=28
8c
8B-
8d
8c
=29
2B-}
==
!!!AGN: Xiaodiao. Sichun
!!!ONB: ESAC (Essen Associative Code) Database: CHINA
!!!AMT: simple duple
!!!AIN: vox
!!!EED: Helmut Schaffrath
!!!EEV: 1.0
*-
